X:1
T: 015 - Exultação
T:Letra: Fanny Jane Crosby (1820-1915)
T:Trad.: Joseph Jones (1848-1927)
T:Música: William Howard Doane (1832-1915)
M:3/4
L:1/8
Q:1/4=120
K:Ab
V:1
E2|  "Ab"E4FG| A2E2A2|  "Eb7"B2E2B2| "Ab"c4c2|  "Db"d2F2d2|  "Ab"c2A2c2|c2B2F2| "Eb7"B4 E2|  "Ab"E4FG|A2E2A2| "Eb"B2E2B2| "Ab"c4c2|  "Db"e2d2B2|  "Ab/E"A2G2A2| "Eb7"c2c2B2|  "Ab"A4 || c3/2d/2 |  "Ab"e4c3/2d/2| e4e3/2c/2|A2B2c2| "Eb"B4B3/2c/2| d4B3/2c/2| d4dB|e2e2d2|  "Ab"c4 E2| E4FG| A2E2A2| "Eb"B2E2B2|  "Ab"c4c2|  "Db"e2d2B2|  "Ab/E"A2G2A2|  "Eb7"c2c2B2|  "Ab"A4 |]
w: 1.~A Deus de-mos gló-ria, com gran-de fer-vor; Seu Fi-lho ben-di-to por nós to-dos deu; A gra-ça con-ce-deao mais vil pe-ca-dor, A-brin-do-lhea por-ta deen-tra-da no céu. E-xul-tai! E-xul-tai! Vin-de to-dos lou-var A Je-sus, Sal-va-dor, a Je-sus, Re-den-tor; A Deus de-mos gló-ria, por-quan-to do céu Seu Fi-lho ben-di-to por nós to-dos deu.
w: 2.~Oh! Gra-ça re-al, foi as-sim que Je-sus, Mor-ren-do, seu san-gue por nós der-ra-mou! He-ran-ça nos céus, com os san-tos em luz, Com-prou-nos Je-sus, pois o pre-ço pa-gou.
w: 3.~A crer nos con-vi-da tal ras-go dea-mor, Nos me-re-ci-men-tos do Fi-lho de Deus; E quem, pois, con-fi-a no seu Sal-va-dor, Vai vê-Lo sen-ta-do na gló-ria dos céus.
W:
W:
W:1. A Deus demos glória, com grande fervor;
W:Seu Filho bendito por nós todos deu;
W:A graça concede ao mais vil pecador,
W:Abrindo-lhe a porta de entrada no céu.
W:
W:(estribilho)
W:Exultai! Exultai! Vinde todos louvar
W:A Jesus, Salvador, a Jesus, Redentor;
W:A Deus demos glória, porquanto do céu
W:Seu Filho bendito por nós todos deu.
W:
W:
W:
W:2. Oh! Graça real, foi assim que Jesus,
W:Morrendo, seu sangue por nós derramou!
W:Herança nos céus, com os santos em luz,
W:Comprou-nos Jesus, pois o preço pagou.
W:
W:3. A crer nos convida tal rasgo de amor,
W:Nos merecimentos do Filho de Deus;
W:E quem, pois, confia no seu Salvador,
W:Vai vê-Lo sentado na glória dos céus.
W:
W:





%wordsfont Times-Roman 13.0
%vocalfont Times-Roman 13.0
